modules/feathericon/icons/vector.svg

<?xml version="1.0" encoding="UTF-8"?>
<svg width="14px" height="14px" viewBox="0 0 14 14" version="1.1" xmlns="http://www.w3.org/2000/svg" xmlns:xlink="http://www.w3.org/1999/xlink">
    <!-- Generator: sketchtool 48.1 (47250) - http://www.bohemiancoding.com/sketch -->
    <title>vector</title>
    <desc>Created with sketchtool.</desc>
    <defs></defs>
    <g id="production" stroke="none" stroke-width="1" fill="none" fill-rule="evenodd">
        <g id="vector" fill="#000000">
            <path d="M12.5,3.99844532 L12.5,10 L14,10 L14,14 L10,14 L10,12.5 L4.00166315,12.5 L4.00166315,14 L0,14 L0,10 L1.5,10 L1.5,3.99844532 L0,3.99844532 L0,0 L4.00166315,0 L4,1.5 L10,1.5 L10,0 L14,0 L14,3.99844532 L12.5,3.99844532 Z M2.5,3.99844532 L2.5,10 L4.00166315,10 L4,11.5 L10,11.5 L10,10 L11.5,10 L11.5,3.99844532 L10,3.99844532 L10,2.5 L4.00166315,2.5 L4.00166315,3.99844532 L2.5,3.99844532 Z M11,11 L11,13 L13,13 L13,11 L11,11 Z M0.999249834,11 L0.999249834,13 L3,13 L3,11 L0.999249834,11 Z M11,1.00272981 L11,3 L13,3 L13,1.00272981 L11,1.00272981 Z M0.999249834,1.00272981 L0.999249834,3 L3,3 L3,1.00272981 L0.999249834,1.00272981 Z" id="Shape"></path>
        </g>
    </g>
</svg>

<svg width="14" height="14" xmlns="http://www.w3.org/2000/svg"><path d="M12.5 3.998V10H14v4h-4v-1.5H4.002V14H0v-4h1.5V3.998H0V0h4.002L4 1.5h6V0h4v3.998h-1.5zm-10 0V10h1.502L4 11.5h6V10h1.5V3.998H10V2.5H4.002v1.498H2.5zM11 11v2h2v-2h-2zM1 11v2h2v-2H1zm10-9.997V3h2V1.003h-2zm-10 0V3h2V1.003H1z" fill="#000" fill-rule="evenodd"/></svg>
